src/assets/img/svg/Group.svg

<svg width="25" height="23" viewBox="0 0 25 23" fill="none" xmlns="http://www.w3.org/2000/svg">
<path d="M20.8667 12.5373C20.8088 12.5057 20.7456 12.4899 20.6877 12.4899C20.556 12.4899 20.4402 12.5425 20.3401 12.6426L19.3766 13.6061C19.2871 13.6956 19.2397 13.8062 19.2397 13.9379V17.7553C19.2397 18.4187 19.0027 18.9821 18.5341 19.456C18.0655 19.9246 17.4968 20.1615 16.8334 20.1615H4.32814C3.6647 20.1615 3.10131 19.9246 2.62742 19.456C2.1588 18.9873 1.92186 18.4187 1.92186 17.7553V5.24473C1.92186 4.58129 2.1588 4.0179 2.62742 3.54401C3.09604 3.0754 3.6647 2.83845 4.32814 2.83845H16.8334C17.0546 2.83845 17.281 2.87005 17.5074 2.92796C17.5653 2.94903 17.6127 2.95956 17.6443 2.95956C17.7759 2.95956 17.8917 2.91217 17.9918 2.80686L18.7289 2.06971C18.85 1.94861 18.8922 1.80644 18.8658 1.63268C18.8342 1.47472 18.7447 1.35888 18.5973 1.28517C18.055 1.03243 17.4705 0.911327 16.8387 0.911327H4.32814C3.1329 0.911327 2.11668 1.33256 1.26896 2.18028C0.42123 3.03327 0 4.05475 0 5.24473V17.75C0 18.94 0.42123 19.9614 1.26896 20.8092C2.11668 21.6569 3.13816 22.0781 4.32814 22.0781H16.8334C18.0234 22.0781 19.0449 21.6569 19.8926 20.8092C20.7403 19.9614 21.1615 18.94 21.1615 17.75V12.969C21.1668 12.7637 21.0668 12.6162 20.8667 12.5373Z" fill="#E80000"/>
<path d="M24.642 3.90732L22.9887 2.25399C22.7465 2.01179 22.4621 1.89068 22.1304 1.89068C21.7987 1.89068 21.5144 2.01179 21.2721 2.25399L11.547 11.9792L7.59268 8.02485C7.35048 7.78264 7.06615 7.66154 6.73443 7.66154C6.40271 7.66154 6.11838 7.78264 5.87617 8.02485L4.22284 9.67818C3.98063 9.92039 3.85953 10.2047 3.85953 10.5364C3.85953 10.8682 3.98063 11.1525 4.22284 11.3947L10.6887 17.8606C10.9309 18.1028 11.2153 18.2239 11.547 18.2239C11.8787 18.2239 12.163 18.1028 12.4052 17.8606L24.642 5.62384C24.8842 5.38163 25.0053 5.0973 25.0053 4.76558C25.0053 4.43386 24.8789 4.14953 24.642 3.90732Z" fill="#E80000"/>
</svg>

<svg width="25" height="23" fill="none" xmlns="http://www.w3.org/2000/svg"><path d="M20.867 12.537a.38.38 0 0 0-.18-.047.48.48 0 0 0-.347.153l-.963.963c-.09.09-.137.2-.137.332v3.817a2.33 2.33 0 0 1-.706 1.701 2.322 2.322 0 0 1-1.7.706H4.327a2.33 2.33 0 0 1-1.7-.706 2.322 2.322 0 0 1-.706-1.7V5.244c0-.664.237-1.227.705-1.701a2.322 2.322 0 0 1 1.701-.706h12.505c.222 0 .448.032.674.09a.441.441 0 0 0 .137.032.46.46 0 0 0 .348-.153l.737-.737a.476.476 0 0 0 .137-.437.476.476 0 0 0-.269-.348A4.102 4.102 0 0 0 16.84.911H4.329c-1.196 0-2.212.422-3.06 1.27C.421 3.032 0 4.054 0 5.244V17.75c0 1.19.421 2.211 1.269 3.06.848.847 1.87 1.268 3.06 1.268h12.504c1.19 0 2.212-.421 3.06-1.269.847-.848 1.268-1.869 1.268-3.059v-4.781c.006-.205-.094-.353-.294-.432z" fill="#E80000"/><path d="M24.642 3.907l-1.653-1.653a1.17 1.17 0 0 0-.859-.363c-.331 0-.616.12-.858.363l-9.725 9.725-3.954-3.954a1.17 1.17 0 0 0-.859-.363 1.17 1.17 0 0 0-.858.363L4.223 9.678a1.17 1.17 0 0 0-.363.858c0 .332.12.617.363.859l6.466 6.466c.242.242.526.363.858.363.332 0 .616-.121.858-.363L24.642 5.624a1.17 1.17 0 0 0 .363-.858c0-.332-.126-.616-.363-.859z" fill="#E80000"/></svg>
